public/images/wix.svg

<svg height="800" preserveAspectRatio="xMidYMid" viewBox="0 -155 512 512" width="800" xmlns="http://www.w3.org/2000/svg"><path d="m0 .23096664s20.2953443-2.56 33.8255738 9.42583606c8.3514754 7.394623 10.7855737 19.1790164 10.7855737 19.1790164l27.6312132 107.5787539 22.9812459-88.0472129c2.2326557-9.3586885 6.2699014-20.9332459 12.6489184-28.7559344 8.141639-9.96301644 24.668327-10.59252464 26.43095-10.59252464s18.280918.6295082 26.414164 10.59252464c6.379017 7.8226885 10.416263 19.3888524 12.657312 28.7559344l22.981246 88.0472129 27.622819-107.5787539s2.442492-11.7843934 10.793968-19.1790164c13.530229-11.98583606 33.81718-9.42583606 33.81718-9.42583606l-52.912262 201.04813136s-17.449968 1.26741-26.187541-3.206295c-11.473836-5.87541-16.921181-10.407869-23.870951-37.770492-3.512427-13.995138-6.981733-28.001062-10.407869-42.017574l-1.300984-5.279475c-3.667934-14.957115-7.327475-29.8554757-9.904262-40.2213773l-1.259016-5.0360656c-1.158295-4.5660328-1.955672-7.6380328-2.241049-8.5613115-.780591-2.5264262-1.712263-8.5445246-6.211148-8.5445246-4.398164 0-5.413771 6.0264918-6.211148 8.5445246-.29377.9232787-1.091147 3.9868853-2.241049 8.5613115l-1.259016 5.0360656c-2.67995 10.7717361-5.337879 21.5489389-7.973771 32.3315413l-1.29259 5.254295c-4.064562 16.658872-8.177366 33.305936-12.33836 49.940983-6.949771 27.35423-12.4055087 31.895082-23.8793447 37.762099-8.7375738 4.473705-26.187541 3.206295-26.187541 3.206295zm318.934033 33.34714756v7.2603278h.016787v121.360787c-.092328 24.903344-2.501246 30.434623-12.976263 36.167344-8.141639 4.456918-20.597508 2.769836-20.597508 2.769836v-135.9485899c0-6.8238689 2.115148-11.2975738 9.912656-15.3096394 4.658361-2.4005245 8.99777-4.2386885 13.513443-6.9581639 6.16918-3.6931147 9.299934-8.0828852 9.988196-9.1236721zm16.803672-32.67567215s27.337443-4.8430164 40.876065 7.97377049c7.612853 7.20996716 16.031476 19.49796716 17.936787 22.33495086l.360918.5371803.041968.0671475 23.837377 35.7224918c1.149901 1.8549508 2.660721 3.8777705 5.078032 3.8777705 2.408918 0 3.928132-2.0144262 5.086427-3.8777705l23.828983-35.7224918.041968-.0671475.360918-.5371803c1.905311-2.8369837 10.323934-15.1249837 17.94518-22.34334431 13.530229-12.80839344 40.867672-7.97377049 40.867672-7.97377049l-64.772197 100.1841314 64.595935 99.856787s-27.966951 3.743475-41.505574-9.073312c-8.662033-8.192-17.533902-21.52918-17.533902-21.52918l-23.837377-35.714099c-1.149901-1.863344-2.669115-3.886163-5.078033-3.886163-2.417311 0-3.928131 2.014426-5.086426 3.886163l-23.828983 35.714099s-8.38505 13.33718-17.038689 21.52918c-13.538623 12.816787-42.00918 9.073312-42.00918 9.073312l64.595934-99.856787zm-16.87082-.89809837h.083935c0 13.34557382-1.259017 21.27737702-9.316722 27.43816392-3.740553 2.8747941-7.865461 5.2113001-12.254426 6.9413771-4.450395 1.7361988-8.525294 4.3122188-12.002623 7.5876721 0-24.3074098 3.550426-33.11213115 13.093771-38.32445902 5.934164-3.23986885 15.67895-3.60918033 19.179016-3.6427541z" fill="#fff"/></svg>

<?xml version="1.0" encoding="UTF-8" ?>
<!-- Uploaded to: SVG Repo, www.svgrepo.com, Generator: SVG Repo Mixer Tools -->
<svg width="800px"
     height="800px"
     viewBox="0 -155 512 512"
     version="1.1"
     xmlns="http://www.w3.org/2000/svg"
     xmlns:xlink="http://www.w3.org/1999/xlink"
     preserveAspectRatio="xMidYMid">
    <g>
        <path d="M0,0.230966635 C0,0.230966635 20.2953443,-2.32903336 33.8255738,9.6568027 C42.1770492,17.0514257 44.6111475,28.8358191 44.6111475,28.8358191 L72.2423607,136.414573 L95.2236066,48.3673601 C97.4562623,39.0086716 101.493508,27.4341142 107.872525,19.6114257 C116.014164,9.64840926 132.540852,9.01890106 134.303475,9.01890106 C136.066098,9.01890106 152.584393,9.64840926 160.717639,19.6114257 C167.096656,27.4341142 171.133902,39.0002781 173.374951,48.3673601 L196.356197,136.414573 L223.979016,28.8358191 C223.979016,28.8358191 226.421508,17.0514257 234.772984,9.6568027 C248.303213,-2.32903336 268.590164,0.230966635 268.590164,0.230966635 L215.677902,201.279098 C215.677902,201.279098 198.227934,202.546508 189.490361,198.072803 C178.016525,192.197393 172.56918,187.664934 165.61941,160.302311 C162.106983,146.307173 158.637677,132.301249 155.211541,118.284737 L153.910557,113.005262 C150.242623,98.048147 146.583082,83.1497863 144.006295,72.7838847 L142.747279,67.7478191 C141.588984,63.1817863 140.791607,60.1097863 140.50623,59.1865076 C139.725639,56.6600814 138.793967,50.641983 134.295082,50.641983 C129.896918,50.641983 128.881311,56.6684748 128.083934,59.1865076 C127.790164,60.1097863 126.992787,63.1733929 125.842885,67.7478191 L124.583869,72.7838847 C121.903919,83.5556208 119.24599,94.3328236 116.610098,105.115426 L115.317508,110.369721 C111.252946,127.028593 107.140142,143.675657 102.979148,160.310704 C96.029377,187.664934 90.5736393,192.205786 79.0998033,198.072803 C70.3622295,202.546508 52.9122623,201.279098 52.9122623,201.279098 L0,0.230966635 L0,0.230966635 Z M318.934033,33.5781142 L318.934033,40.838442 L318.95082,40.838442 L318.95082,162.199229 C318.858492,187.102573 316.449574,192.633852 305.974557,198.366573 C297.832918,202.823491 285.377049,201.136409 285.377049,201.136409 L285.377049,65.1878191 C285.377049,58.3639502 287.492197,53.8902453 295.289705,49.8781797 C299.948066,47.4776552 304.287475,45.6394912 308.803148,42.9200158 C314.972328,39.2269011 318.103082,34.8371306 318.791344,33.7963437 L318.934033,33.5781142 Z M335.737705,0.902442045 C335.737705,0.902442045 363.075148,-3.94057435 376.61377,8.87621254 C384.226623,16.0861797 392.645246,28.3741797 394.550557,31.2111634 L394.911475,31.7483437 L394.953443,31.8154912 L418.79082,67.537983 C419.940721,69.3929338 421.451541,71.4157535 423.868852,71.4157535 C426.27777,71.4157535 427.796984,69.4013273 428.955279,67.537983 L452.784262,31.8154912 L452.82623,31.7483437 L453.187148,31.2111634 C455.092459,28.3741797 463.511082,16.0861797 471.132328,8.86781909 C484.662557,-3.94057435 512,0.894048602 512,0.894048602 L447.227803,101.07818 L511.823738,200.934967 C511.823738,200.934967 483.856787,204.678442 470.318164,191.861655 C461.656131,183.669655 452.784262,170.332475 452.784262,170.332475 L428.946885,134.618376 C427.796984,132.755032 426.27777,130.732213 423.868852,130.732213 C421.451541,130.732213 419.940721,132.746639 418.782426,134.618376 L394.953443,170.332475 C394.953443,170.332475 386.568393,183.669655 377.914754,191.861655 C364.376131,204.678442 335.905574,200.934967 335.905574,200.934967 L400.501508,101.07818 L335.737705,0.902442045 L335.737705,0.902442045 Z M318.866885,0.00434368429 L318.95082,0.00434368429 C318.95082,13.3499175 317.691803,21.2817207 309.634098,27.4425076 C305.893545,30.3173017 301.768637,32.6538077 297.379672,34.3838847 C292.929277,36.1200835 288.854378,38.6961035 285.377049,41.9715568 C285.377049,17.664147 288.927475,8.85942565 298.47082,3.64709778 C304.404984,0.40722893 314.14977,0.0379174548 317.649836,0.00434368429 L318.866885,0.00434368429 L318.866885,0.00434368429 Z"
              fill="#ffffff" />
    </g>
</svg>
